assets/symbols/mulberry/crane.svg

<svg height="850.394" viewBox="0 0 850.394 850.394" width="850.394" xmlns="http://www.w3.org/2000/svg"><path d="m601.29 132.45 109.55-41.96 23.75-9.09.54 114.45-143.1 44.59v-104.44z" fill="#fff400"/><path d="m710.84 90.49-109.55 41.96v-23.37l109.38-44.85v25.81z" fill="#fff400"/><path d="m233.18 423.09-.11 11.25-16.24 12.01v-23.26z" fill="#231f20"/><path d="m216.83 423.09v23.26l-.48.35-17.02-11.41v-12.2z" fill="#231f20"/><g fill="none"><g stroke="#231f20" stroke-width="21"><path d="m361.83 312.18 13.27-4.13 26.58-8.28 9.85-3.07 26.91-8.39 10.1-3.15 27.65-8.62 10.07-3.13 29.61-9.23 7.03-2.19 29.44-9.17v-.01l7.35-2.29 32.34-10.08 143.1-44.59-.54-114.45-23.75 9.09-109.55 41.96-9.26 3.55"/><path d="m592.03 240.44v-104.44l-29.7 11.3-4.15 1.58-32.25 12.28-4.8 1.83-30.87 11.74v.01l-4.75 1.8-34.09 12.98-3.19 1.22-32.47 12.35-4.23 1.61-31.67 12.06-4.76 1.81-33.07 12.59-6.88 2.61v.01l-31.65 12.04-5.11 1.95-32.24 12.27-34.38 13.08-7.33 2.79-28.92 11.01-37.71 14.36-3.98 1.51-29.25 11.14-15.33 5.83-3.68 60.48 15.64 6.93 32.62-10.17 34.33-10.7 2.13-.66 26.54-8.27 10.71-3.33v-.01l106.18-33.09 3.87-1.2 24.24-7.55m197.58-160.08v97.51m-36.97-83.18v94.06m-36.43-82.64v94.74m-37.51-81.15v93.6m-36.97-81.64v93.92m-36.43-79.24v90.25"/><path d="m336 236 1.59 83.74v.02m-37.59-67.76.62 68.84m-33.5-58.24-3.47 70.75m-37.65-53.35.67 69.85.01 1.44m-30.17-61.78-6.8 74.28m-35.88-62.52v77.2m409.02-229.8 24.83 87.36m-60.45-71.45 24.83 87.35m-61.12-75.42 24.83 87.35m-64.79-75.9.44 1.56 24.39 85.79m-59.91-71.86 22.12 83.52m-58.43-71.26.27 1.05 21.82 83.01.2.76m-59.19-67.64 19.14 79.29v.01m-58.33-66.37 30.15 74.89m-66.53-58.11 28.66 60.35m-62.77-46.58 27.71 58.37.94 1.98m-65.15-47.21 28.65 60.35m-65.99-45 28.65 60.34m-63.22-51.22 28.66 60.35m63.57 72.02v110.45m0-199.43v65.72m0 23.26 16.24-12.01.11-11.25h-33.85v12.2l17.02 11.41zm384.46-313.7v-23.57l109.38-44.85v25.81m-296.32 206.33.9 491.29m24.61-497.8v497.8m91.27-521.28v521.28m-91.27-395.69 91.27-37.82m-91.27 91.51 88.71-36.74 2.56-1.06m-88.45 97.08 81.32-36.94m-84.13 98.83 91.26-37.82m-91.26 98.9 91.26-37.82m-91.26 94.72 85.53-35.44 5.73-2.37m-88.28 95.82 88.28-35.98m-91.27-352.69h91.27m-91.27-14.5 91.27-37.81m-91.27 0h91.27m-91.27 107.08h91.27m-91.27 59.97 84.14-.89m-84.14 60.22h91.27m-91.27 59.98h91.27m-91.27 58.66 84.14-.86m-84.14 60.84h91.27m-91.27 60.73h91.27"/></g><path d="m0 0h850.394v850.394h-850.394z"/></g></svg>

<svg xmlns="http://www.w3.org/2000/svg" width="850.394" height="850.394" viewBox="0 0 850.394 850.394" overflow="visible"><path fill="#fff400" d="M601.29 132.45l109.55-41.96 23.75-9.09.54 114.45-143.1 44.59V136z"/><path fill="#fff400" d="M710.84 90.49l-109.55 41.96v-23.37l109.38-44.85v25.81z"/><path fill="#231f20" d="M233.18 423.09l-.11 11.25-16.24 12.01v-23.26z"/><path fill="#231f20" d="M216.83 423.09v23.26l-.48.35-17.02-11.41v-12.2z"/><g fill="none" stroke="#231f20" stroke-width="21"><path d="M361.83 312.18l13.27-4.13 26.58-8.28 9.85-3.07 26.91-8.39 10.1-3.15 27.65-8.62 10.07-3.13 29.61-9.23 7.03-2.19 29.44-9.17v-.01l7.35-2.29 32.34-10.08 143.1-44.59-.54-114.45-23.75 9.09-109.55 41.96-9.26 3.55"/><path d="M592.03 240.44V136l-29.7 11.3-4.15 1.58-32.25 12.28-4.8 1.83-30.87 11.74v.01l-4.75 1.8-34.09 12.98-3.19 1.22-32.47 12.35-4.23 1.61-31.67 12.06-4.76 1.81-33.07 12.59-6.88 2.61v.01l-31.65 12.04-5.11 1.95-32.24 12.27-34.38 13.08-7.33 2.79-28.92 11.01-37.71 14.36-3.98 1.51-29.25 11.14-15.33 5.83-3.68 60.48 15.64 6.93L153.83 377l34.33-10.7 2.13-.66 26.54-8.27 10.71-3.33v-.01l106.18-33.09 3.87-1.2 24.24-7.55M559.41 152.11v97.51M522.44 166.44v94.06M486.01 177.86v94.74M448.5 191.45v93.6M411.53 203.41v93.92M375.1 218.09V308.34"/><path d="M336 236l1.59 83.74v.02M300 252l.62 68.84M267.12 262.6l-3.47 70.75M226 280l.67 69.85.01 1.44M196.51 289.51l-6.8 74.28M153.83 301.27v77.2M562.85 148.67l24.83 87.36M527.23 164.58l24.83 87.35M490.94 176.51l24.83 87.35M450.98 187.96l.44 1.56 24.39 85.79M415.9 203.45l22.12 83.52M379.59 215.71l.27 1.05 21.82 83.01.2.76M342.69 232.89l19.14 79.29v.01M303.5 245.82l30.15 74.89M267.12 262.6l28.66 60.35M233.01 276.37l27.71 58.37.94 1.98M196.51 289.51l28.65 60.35M159.17 304.86l28.65 60.34M124.6 313.98l28.66 60.35M216.83 446.35V556.8M216.83 357.37v65.72M216.83 446.35l16.24-12.01.11-11.25h-33.85v12.2l17.02 11.41zM601.29 132.65v-23.57l109.38-44.85v25.81M414.35 296.37l.9 491.29M439.86 289.86V787.66M531.13 266.38V787.66M439.86 391.97l91.27-37.82M439.86 445.66l88.71-36.74 2.56-1.06M442.68 504.94L524 468M439.87 566.83l91.26-37.82M439.87 627.91l91.26-37.82M439.87 684.81l85.53-35.44 5.73-2.37M442.85 742.82l88.28-35.98M439.86 354.15h91.27M439.86 339.65l91.27-37.81M439.86 301.84h91.27M439.86 408.92h91.27M439.86 468.89L524 468M439.86 528.22h91.27M439.86 588.2h91.27M439.86 646.86L524 646M439.86 706.84h91.27M439.86 767.57h91.27"/></g><path fill="none" d="M0 0h850.394v850.394H0z"/></svg>
